X:1
T: Judson's Logic
C:Ann Hooper
R:Jig
Q:180
K:G
M:6/8
L:1/16
|:D2|G6 G4B2|d2B2G2 G4g2|d4B2 G4B2|A2F2D2 D2E2F2|G6 G4B2|d2B2G2 g4e2|
d4D2 D2E2F2|G6G4:|B2|A2F2D2 d4c2|B2G2D2 d4B2|A2F2D2 d4c2|B6G4B2|
A2F2D2 d4c2|B2G2D2 g4e2|^c2B2A2 a4g2|f2e2d2 =c2B2A2|G6 G4B2|d2B2G2 G4g2|
d2B2G2 G2A2B2|A2F2D2 D2E2F2|G2A2B2 A2B2c2|B2c2d2 e4g2|d4D2 D2E2F2|G6G4||
